X: 4584
T: Bouffard's
R: waltz
M: 3/4
K: Dmajor
F4 E2|D4 F2|A6-|A6|B4 c2|d2 c2 B2|A2 B2 A2|G2 F2 E2|
F4 E2|D4 F2|A6-|A6|B4 c2|d2 e2 c2|d6-|d6:|
|:F3A d2|F2 A2 d2|G3B d2|G2 B2 d2|A3c e2|A2 c2 e2|d2 dc de|f4 a2|
F3A d2|F2 A2 d2|G3B d2|G2 B2 d2|A3c e2|A2 c2 e2|d2 dc de|d6:|

